X: 189
T: The Holy Land
R: reel
M: 4/4
L: 1/8
K: Dmaj
A |:B3 c A2 Bc | dF3 DFAd | BG G2 ABdf | afeg fdd2 |
B3 c A2 Bc | dF3 DFAd | BG G2 ABdf | afeg fdde :|
|: f2 df dfaf | gfed (3Bcd eg | f2 df dfaf | gfeg fdde |
f2 df dfaf | gfed cdeg | dfaf g2 ag | (3fgf eg fddd :|
F: https://thesession.org/tunes/616#setting21993

